icons/handbag-line.svg

<svg xmlns="http://www.w3.org/2000/svg" width="24" height="24" fill="none"><g clip-path="url(#a)"><g><path fill="#121212" d="M12 2C13.8565 2 15.637 2.7375 16.9498 4.05025C18.2625 5.36301 19 7.14348 19 9H20.074C20.3259 9.00001 20.5685 9.09507 20.7533 9.26618C20.9382 9.4373 21.0516 9.67187 21.071 9.923L21.917 20.923C21.9374 21.1874 21.852 21.4491 21.6794 21.6505C21.5069 21.8519 21.2614 21.9766 20.997 21.997L20.92 22H3.08002C2.8148 22 2.56045 21.8946 2.37291 21.7071C2.18537 21.5196 2.08002 21.2652 2.08002 21L2.08302 20.923L2.92902 9.923C2.94841 9.67187 3.06186 9.4373 3.2467 9.26618C3.43153 9.09507 3.67414 9.00001 3.92602 9H5.00002C5.00002 7.14348 5.73751 5.36301 7.05027 4.05025C8.36302 2.7375 10.1435 2 12 2ZM19.147 11H4.85202L4.15902 20H19.84L19.147 11ZM14 13V15H10V13H14ZM12 4C10.7116 4.00007 9.47286 4.49754 8.54224 5.38866C7.61162 6.27978 7.06094 7.49575 7.00502 8.783L7.00002 9H17C16.9999 7.71154 16.5025 6.47284 15.6114 5.54222C14.7202 4.61161 13.5043 4.06092 12.217 4.005L12 4Z"/></g></g><defs><clipPath id="a"><rect width="24" height="24" fill="white"/></clipPath></defs></svg>

<svg width="24" height="24" fill="none" xmlns="http://www.w3.org/2000/svg"><g clip-path="url(#a)"><path d="M12 2a7 7 0 0 1 7 7h1.074a1 1 0 0 1 .997.923l.846 11a1 1 0 0 1-.92 1.074L20.92 22H3.08a1 1 0 0 1-1-1l.003-.077.846-11A1 1 0 0 1 3.926 9H5a7 7 0 0 1 7-7Zm7.147 9H4.852l-.693 9H19.84l-.693-9ZM14 13v2h-4v-2h4Zm-2-9a5 5 0 0 0-4.995 4.783L7 9h10a5 5 0 0 0-4.783-4.995L12 4Z" /></g><defs><clipPath id="a"><path fill="#fff" d="M0 0h24v24H0z"/></clipPath></defs></svg>
